X: 1
T: Killarney Boys Of Pleasure
M: 4/4
L: 1/8
R: reel
K: Emin
E2 F/E/D E2 FA|BFAF DEFA|B2 Bd e2 ed|BdAF DEFD|
E2 F/E/D E2 FA|BFAF DEFA|B2 Bd e2 ed|BdAF FEED:|
Beee Befe|BdAF DEFA|f2 fe f2 fe|dBAF DEFA
Beee Befe|BdAF DEFA|f2 fe defe|dBAF E3 z:|
